X: 4
T: An Dro
C: Traditional - via Jim Oakden
M: 4/4
L: 1/8
K: D
|: "D"D2 D2 A4 | "G"G2 A2 "A"GFE2 | "D"D2 D2 A4 | "G"G2AG "A"E4 :|
|: "G"G2AG "D"F2D2 | "A"E2FE "D"D2A2 | D2EF "G"G2GA |"A"GFE2 "D"D4 :| 

%%newpage
%%header "Brand		$P"

